resources/svg/inbox.svg

<svg xmlns="http://www.w3.org/2000/svg" viewBox="0 0 15 15" fill="currentColor"><path d="M0 1.5C0 0.671573 0.671573 0 1.5 0H13.5C14.3284 0 15 0.671573 15 1.5V8H10.5C10.2239 8 10 8.22386 10 8.5C10 9.88071 8.88071 11 7.5 11C6.11929 11 5 9.88071 5 8.5C5 8.22386 4.77614 8 4.5 8H0V1.5Z" fill="black"/><path d="M0 9V13.5C0 14.3284 0.671573 15 1.5 15H13.5C14.3284 15 15 14.3284 15 13.5V9H10.9646C10.7219 10.6961 9.26324 12 7.5 12C5.73676 12 4.27806 10.6961 4.03544 9H0Z" fill="black"/></svg>

<svg xmlns="http://www.w3.org/2000/svg" viewBox="0 0 15 15" fill="currentColor"><path d="M0 1.5A1.5 1.5 0 011.5 0h12A1.5 1.5 0 0115 1.5V8h-4.5a.5.5 0 00-.5.5 2.5 2.5 0 01-5 0 .5.5 0 00-.5-.5H0V1.5z" fill="currentColor"/><path d="M0 9v4.5A1.5 1.5 0 001.5 15h12a1.5 1.5 0 001.5-1.5V9h-4.035a3.5 3.5 0 01-6.93 0H0z" fill="currentColor"/></svg>
